assets/regular/warning-octagon.svg

<svg id="Flat" xmlns="http://www.w3.org/2000/svg" viewBox="0 0 256 256">
  <path d="M120,136.00012v-56a8,8,0,1,1,16,0v56a8,8,0,1,1-16,0ZM232,91.54944V164.4508a15.8955,15.8955,0,0,1-4.68555,11.313l-51.5498,51.54981a15.89474,15.89474,0,0,1-11.31348,4.68652H91.54883a15.89318,15.89318,0,0,1-11.31348-4.687l-51.5498-51.54883A15.89747,15.89747,0,0,1,24,164.4508V91.54944A15.89747,15.89747,0,0,1,28.68555,80.236l51.5498-51.5498a15.89627,15.89627,0,0,1,11.31348-4.686h72.90234a15.89474,15.89474,0,0,1,11.31348,4.68652l51.5498,51.54883A15.89944,15.89944,0,0,1,232,91.54944Zm-16,0L164.4502,40.00012H91.54883L40,91.54944V164.4508l51.5498,51.54932h72.90137L216,164.4508Zm-88,68.45068a12,12,0,1,0,12,12A12.01343,12.01343,0,0,0,128,160.00012Z"/>
</svg>

<svg xmlns="http://www.w3.org/2000/svg" viewBox="0 0 256 256"><path d="M120,136V80a8,8,0,0,1,16,0v56a8,8,0,0,1-16,0ZM232,91.5v72.9a16.3,16.3,0,0,1-4.7,11.4l-51.5,51.5a16.2,16.2,0,0,1-11.3,4.7h-73a16.2,16.2,0,0,1-11.3-4.7L28.7,175.8A16.3,16.3,0,0,1,24,164.4V91.5a16.2,16.2,0,0,1,4.7-11.3L80.2,28.7A16.2,16.2,0,0,1,91.5,24h73a16.2,16.2,0,0,1,11.3,4.7l51.5,51.5A16.2,16.2,0,0,1,232,91.5Zm-16,0L164.5,40h-73L40,91.5v72.9L91.5,216h73L216,164.4ZM128,160a12,12,0,1,0,12,12A12,12,0,0,0,128,160Z"/></svg>
